static/assets/images/protocols/wombat-exchange-mono.svg

<svg width="362" height="326" viewBox="0 0 362 326" fill="none" xmlns="http://www.w3.org/2000/svg">
<path d="M108.479 26.4498L54.4933 26.5582C54.4266 26.5582 54.3626 26.5847 54.3155 26.6319C54.2683 26.679 54.2418 26.743 54.2418 26.8096V108.294C54.2418 108.338 54.2241 108.381 54.1927 108.412C54.1613 108.444 54.1186 108.461 54.0742 108.461L27.3675 108.471C27.3034 108.471 27.2419 108.497 27.1966 108.543C27.1513 108.59 27.1258 108.652 27.1258 108.718L27.1308 253.469L27.1209 271.133C27.1209 271.299 27.1874 271.459 27.3058 271.576C27.4241 271.694 27.5847 271.76 27.7521 271.76L81.343 271.735L81.5057 280.732L81.3627 298.16C81.3594 298.643 81.5994 298.885 82.0827 298.885L280.06 298.89C280.207 298.89 280.347 298.831 280.451 298.728C280.554 298.624 280.613 298.484 280.613 298.337L280.618 280.579L280.637 279.697L280.642 272.529C280.642 272.325 280.724 272.129 280.869 271.985C281.014 271.841 281.211 271.76 281.416 271.76H334.317C334.462 271.76 334.601 271.702 334.704 271.599C334.807 271.497 334.864 271.357 334.864 271.212L334.879 253.464C334.882 205.196 334.882 156.922 334.879 108.644C334.83 108.571 334.858 108.511 334.963 108.461H361.832C361.877 108.461 361.919 108.479 361.951 108.51C361.982 108.542 362 108.584 362 108.629V271.503C362 271.557 361.979 271.608 361.942 271.646C361.905 271.684 361.855 271.705 361.803 271.705H335.096C334.951 271.705 334.879 271.778 334.879 271.922L334.884 298.574C334.884 298.781 334.78 298.885 334.573 298.885H280.751C280.721 298.885 280.692 298.897 280.671 298.918C280.649 298.939 280.637 298.968 280.637 298.998L280.642 325.901C280.642 325.928 280.632 325.953 280.613 325.971C280.595 325.99 280.57 326 280.544 326H81.6389C81.4548 326 81.3627 325.906 81.3627 325.719V299.181C81.3627 298.983 81.2641 298.885 81.0669 298.885H27.3379C27.2803 298.885 27.2251 298.862 27.1845 298.821C27.1438 298.78 27.1209 298.725 27.1209 298.668V271.952C27.1209 271.787 27.0387 271.705 26.8744 271.705H0.246552C0.0821824 271.705 0 271.623 0 271.459V108.614C0 108.572 0.0161019 108.532 0.0447693 108.503C0.0734367 108.473 0.112321 108.456 0.152863 108.456H26.8448C26.918 108.456 26.9882 108.427 27.04 108.375C27.0918 108.324 27.1209 108.253 27.1209 108.18V0.216919C27.1209 0.159388 27.1432 0.104218 27.183 0.0635376C27.2228 0.0228567 27.2767 0 27.3329 0H108.222C108.288 0 108.35 0.0264937 108.397 0.0736465C108.443 0.120799 108.469 0.18475 108.469 0.251434L108.479 26.4498Z" fill="black"/>
<path d="M334.879 108.294C334.853 108.34 334.823 108.382 334.79 108.422C334.761 108.451 334.726 108.466 334.687 108.466H307.946C307.896 108.466 307.848 108.446 307.813 108.41C307.778 108.374 307.758 108.325 307.758 108.274L307.763 26.7308C307.763 26.685 307.744 26.6411 307.711 26.6087C307.678 26.5764 307.633 26.5582 307.586 26.5582H253.797C253.617 26.5582 253.526 26.6502 253.526 26.8343V52.9636C253.526 53.0655 253.475 53.1164 253.373 53.1164H108.72C108.689 53.1164 108.658 53.1103 108.63 53.0984C108.601 53.0865 108.575 53.0691 108.553 53.0471C108.531 53.0251 108.514 52.9991 108.502 52.9704C108.49 52.9416 108.484 52.9109 108.484 52.8798L108.587 26.5582H253.324C253.452 26.5582 253.516 26.4941 253.516 26.366V0.231712C253.516 0.170258 253.541 0.111318 253.584 0.0678635C253.628 0.0244089 253.687 0 253.748 0H334.756C334.838 0 334.879 0.0410853 334.879 0.123253V108.294Z" fill="black"/>
<path d="M108.479 26.4498C108.285 26.4958 108.321 26.5319 108.587 26.5582L108.484 52.8798C108.484 52.9109 108.49 52.9416 108.502 52.9704C108.514 52.9991 108.531 53.0251 108.553 53.0471C108.575 53.0691 108.601 53.0865 108.63 53.0984C108.658 53.1103 108.689 53.1164 108.72 53.1164H253.373C253.475 53.1164 253.526 53.0655 253.526 52.9636V26.8343C253.526 26.6502 253.617 26.5582 253.797 26.5582H307.586C307.633 26.5582 307.678 26.5764 307.711 26.6087C307.744 26.6411 307.763 26.685 307.763 26.7308L307.758 108.274C307.758 108.325 307.778 108.374 307.813 108.41C307.848 108.446 307.896 108.466 307.946 108.466H334.687C334.726 108.466 334.761 108.451 334.79 108.422C334.823 108.382 334.853 108.34 334.879 108.294C334.869 108.376 334.897 108.432 334.963 108.461C334.858 108.511 334.83 108.571 334.879 108.644C334.882 156.922 334.882 205.196 334.879 253.464L280.82 253.469C280.797 253.469 280.775 253.473 280.754 253.482C280.733 253.491 280.714 253.504 280.698 253.52C280.682 253.536 280.669 253.555 280.66 253.576C280.652 253.596 280.647 253.619 280.647 253.642L280.637 279.697L280.618 280.579L199.309 280.579V272.055C199.309 271.978 199.339 271.904 199.393 271.85C199.446 271.795 199.519 271.764 199.595 271.764H217.342C217.392 271.764 217.439 271.745 217.475 271.71C217.51 271.674 217.529 271.627 217.529 271.577L217.524 262.678C217.524 262.452 217.636 262.338 217.86 262.338H235.562C235.704 262.338 235.774 262.268 235.774 262.126V199.332C235.774 199.306 235.764 199.281 235.745 199.262C235.727 199.244 235.702 199.233 235.676 199.233H217.801C217.613 199.233 217.52 199.326 217.52 199.51V235.006C217.52 235.151 217.449 235.223 217.307 235.223H199.561C199.376 235.223 199.284 235.132 199.284 234.952V226.63C199.284 226.442 199.191 226.349 199.003 226.349H162.972C162.808 226.349 162.725 226.431 162.725 226.595V234.976C162.725 235.141 162.643 235.223 162.479 235.223H144.727C144.662 235.223 144.599 235.197 144.553 235.151C144.506 235.104 144.48 235.042 144.48 234.976V199.48C144.48 199.316 144.398 199.233 144.234 199.233H126.359C126.308 199.233 126.259 199.253 126.223 199.288C126.187 199.323 126.166 199.371 126.166 199.421V262.18C126.166 262.286 126.219 262.338 126.324 262.338H144.234C144.398 262.338 144.48 262.42 144.48 262.585V271.488C144.48 271.676 144.573 271.769 144.757 271.769L162.454 271.764C162.599 271.764 162.673 271.837 162.676 271.981L162.721 280.579L81.5057 280.732L81.343 271.735L81.3578 253.617C81.3578 253.579 81.3422 253.543 81.3145 253.516C81.2867 253.489 81.2491 253.474 81.2099 253.474L27.1308 253.469L27.1258 108.718C27.1258 108.652 27.1513 108.59 27.1966 108.543C27.2419 108.497 27.3034 108.471 27.3675 108.471L54.0742 108.461C54.1186 108.461 54.1613 108.444 54.1927 108.412C54.2241 108.381 54.2418 108.338 54.2418 108.294V26.8096C54.2418 26.743 54.2683 26.679 54.3155 26.6319C54.3626 26.5847 54.4266 26.5582 54.4933 26.5582L108.479 26.4498ZM81.9249 54.4968C81.9249 54.4638 81.9314 54.4311 81.944 54.4006C81.9567 54.3701 81.9752 54.3424 81.9985 54.3191C82.0219 54.2957 82.0496 54.2772 82.0801 54.2646C82.1106 54.2519 82.1433 54.2454 82.1763 54.2454H90.5592C90.6259 54.2454 90.6898 54.2189 90.737 54.1718C90.7842 54.1246 90.8107 54.0607 90.8107 53.994L90.8156 36.2408C90.8156 36.1742 90.7891 36.1102 90.7419 36.0631C90.6948 36.0159 90.6308 35.9894 90.5641 35.9894L63.9314 35.9943C63.8647 35.9943 63.8007 36.0208 63.7536 36.068C63.7064 36.1151 63.6799 36.1791 63.6799 36.2458V62.8631C63.6799 62.9298 63.7064 62.9938 63.7536 63.0409C63.8007 63.0881 63.8647 63.1146 63.9314 63.1146L81.6882 63.1195C81.7549 63.1195 81.8188 63.093 81.866 63.0459C81.9132 62.9987 81.9397 62.9348 81.9397 62.8681L81.9249 54.4968ZM280.445 54.2405C280.5 54.2405 280.553 54.2623 280.591 54.3011C280.63 54.34 280.652 54.3926 280.652 54.4475L280.647 62.9075C280.647 62.9624 280.669 63.0151 280.708 63.0539C280.747 63.0928 280.799 63.1146 280.854 63.1146L298.695 63.1195C298.75 63.1195 298.802 63.0977 298.841 63.0589C298.88 63.02 298.902 62.9674 298.902 62.9124L298.907 36.2063C298.907 36.1514 298.885 36.0988 298.846 36.0599C298.807 36.0211 298.755 35.9993 298.7 35.9993H272.003C271.948 35.9993 271.895 36.0211 271.857 36.0599C271.818 36.0988 271.796 36.1514 271.796 36.2063L271.776 54.0384C271.776 54.0656 271.781 54.0925 271.792 54.1176C271.802 54.1427 271.818 54.1655 271.837 54.1848C271.856 54.204 271.879 54.2193 271.904 54.2297C271.929 54.2401 271.956 54.2454 271.983 54.2454L280.445 54.2405ZM136.167 154.04C136.167 153.996 136.15 153.955 136.119 153.925C136.089 153.894 136.047 153.877 136.004 153.877H108.646C108.603 153.877 108.562 153.894 108.531 153.925C108.501 153.955 108.484 153.996 108.484 154.04V181.382C108.484 181.425 108.501 181.466 108.531 181.497C108.562 181.527 108.603 181.544 108.646 181.544H136.004C136.047 181.544 136.089 181.527 136.119 181.497C136.15 181.466 136.167 181.425 136.167 181.382V154.04ZM253.368 181.549C253.41 181.549 253.45 181.533 253.48 181.503C253.51 181.474 253.526 181.433 253.526 181.392V154.035C253.526 153.993 253.51 153.953 253.48 153.923C253.45 153.894 253.41 153.877 253.368 153.877H226.001C225.959 153.877 225.919 153.894 225.889 153.923C225.86 153.953 225.843 153.993 225.843 154.035V181.387C225.843 181.428 225.86 181.469 225.889 181.498C225.919 181.528 225.959 181.544 226.001 181.544L253.368 181.549ZM162.725 181.185C162.725 181.134 162.705 181.085 162.669 181.049C162.633 181.012 162.584 180.992 162.533 180.992H144.673C144.622 180.992 144.573 181.012 144.537 181.049C144.501 181.085 144.48 181.134 144.48 181.185V199.041C144.48 199.092 144.501 199.141 144.537 199.177C144.573 199.213 144.622 199.233 144.673 199.233H162.533C162.584 199.233 162.633 199.213 162.669 199.177C162.705 199.141 162.725 199.092 162.725 199.041V181.185ZM217.529 181.17C217.529 181.123 217.511 181.077 217.477 181.044C217.444 181.011 217.399 180.992 217.352 180.992H199.452C199.405 180.992 199.36 181.011 199.327 181.044C199.293 181.077 199.275 181.123 199.275 181.17V199.056C199.275 199.103 199.293 199.148 199.327 199.181C199.36 199.215 199.405 199.233 199.452 199.233H217.352C217.399 199.233 217.444 199.215 217.477 199.181C217.511 199.148 217.529 199.103 217.529 199.056V181.17Z" fill="black"/>
<path d="M27.1308 253.469L81.2099 253.474C81.2491 253.474 81.2867 253.489 81.3145 253.516C81.3422 253.543 81.3578 253.579 81.3578 253.617L81.343 271.735L27.7521 271.76C27.5847 271.76 27.4241 271.694 27.3058 271.576C27.1874 271.459 27.1209 271.299 27.1209 271.133L27.1308 253.469Z" fill="black"/>
<path d="M334.879 253.464L334.864 271.212C334.864 271.357 334.807 271.497 334.704 271.599C334.601 271.702 334.462 271.76 334.317 271.76H281.416C281.211 271.76 281.014 271.841 280.869 271.985C280.724 272.129 280.642 272.325 280.642 272.529L280.637 279.697L280.647 253.642C280.647 253.619 280.652 253.596 280.66 253.576C280.669 253.555 280.682 253.536 280.698 253.52C280.714 253.504 280.733 253.491 280.754 253.482C280.775 253.473 280.797 253.469 280.82 253.469L334.879 253.464Z" fill="black"/>
<path d="M162.721 280.579L171.335 280.57C171.513 280.57 171.601 280.658 171.601 280.836V289.33C171.601 289.363 171.614 289.394 171.637 289.417C171.641 289.421 171.646 289.425 171.65 289.428C171.656 289.433 171.663 289.437 171.67 289.441L171.672 289.442C171.688 289.449 171.706 289.454 171.725 289.454H189.723C189.805 289.454 189.846 289.412 189.846 289.33V280.806C189.846 280.652 189.925 280.574 190.083 280.574L199.309 280.579L280.618 280.579L280.613 298.337C280.613 298.484 280.554 298.624 280.451 298.728C280.347 298.831 280.207 298.89 280.06 298.89L82.0827 298.885C81.5994 298.885 81.3594 298.643 81.3627 298.16L81.5057 280.732L162.721 280.579Z" fill="black"/>
</svg>

<svg xmlns="http://www.w3.org/2000/svg" fill="none" viewBox="0 0 362 326"><path fill="#000" d="m108.479 26.45-53.986.108a.25.25 0 0 0-.251.252v81.484a.167.167 0 0 1-.168.167l-26.706.01a.24.24 0 0 0-.171.072.25.25 0 0 0-.071.175l.005 144.751-.01 17.664a.632.632 0 0 0 .631.627l53.591-.025.163 8.997-.143 17.428q-.006.725.72.725l197.977.005a.556.556 0 0 0 .553-.553l.005-17.758.019-.882.005-7.168a.77.77 0 0 1 .774-.769h52.901a.547.547 0 0 0 .547-.548l.015-17.748q.004-72.403 0-144.82-.073-.109.084-.183h26.869a.17.17 0 0 1 .119.049.17.17 0 0 1 .049.119v162.874a.2.2 0 0 1-.058.143.2.2 0 0 1-.139.059h-26.707q-.217 0-.217.217l.005 26.652q0 .31-.311.311h-53.822a.114.114 0 0 0-.114.113l.005 26.903q0 .042-.029.07a.1.1 0 0 1-.069.029H81.639q-.276 0-.276-.281v-26.538q0-.296-.296-.296h-53.73a.217.217 0 0 1-.217-.217v-26.716q0-.247-.246-.247H.247q-.247 0-.247-.246V108.614a.16.16 0 0 1 .153-.158h26.692a.275.275 0 0 0 .276-.276V.217a.22.22 0 0 1 .062-.153.2.2 0 0 1 .15-.064h80.889c.066 0 .128.026.175.074a.26.26 0 0 1 .072.177z"/><path fill="#000" d="M334.879 108.294a1 1 0 0 1-.089.128.14.14 0 0 1-.103.044h-26.741a.19.19 0 0 1-.133-.056.2.2 0 0 1-.055-.136l.005-81.543a.17.17 0 0 0-.052-.122.18.18 0 0 0-.125-.05h-53.789q-.27 0-.271.275v26.13q0 .153-.153.152H108.72a.23.23 0 0 1-.167-.069.24.24 0 0 1-.069-.167l.103-26.322h144.737q.192 0 .192-.192V.232a.234.234 0 0 1 .232-.232h81.008q.123 0 .123.123z"/><path fill="#000" d="M108.479 26.45q-.291.069.108.108l-.103 26.322a.235.235 0 0 0 .236.236h144.653q.153 0 .153-.152v-26.13q0-.276.271-.276h53.789c.047 0 .092.018.125.05a.17.17 0 0 1 .052.123l-.005 81.543c0 .051.02.1.055.136a.19.19 0 0 0 .133.056h26.741a.14.14 0 0 0 .103-.044 1 1 0 0 0 .089-.128q-.015.123.084.167-.157.074-.084.183.004 72.418 0 144.82l-54.059.005a.17.17 0 0 0-.122.051.2.2 0 0 0-.038.056.2.2 0 0 0-.013.066l-.01 26.055-.019.882h-81.309v-8.524a.29.29 0 0 1 .286-.291h17.747a.2.2 0 0 0 .133-.054.2.2 0 0 0 .054-.133l-.005-8.899q0-.34.336-.34h17.702q.213 0 .212-.212v-62.794a.1.1 0 0 0-.098-.099h-17.875q-.281 0-.281.277v35.496q0 .217-.213.217h-17.746q-.277 0-.277-.271v-8.322q0-.281-.281-.281h-36.031q-.246 0-.247.246v8.381q0 .247-.246.247h-17.752a.247.247 0 0 1-.247-.247V199.48q0-.246-.246-.247h-17.875c-.051 0-.1.02-.136.055a.19.19 0 0 0-.057.133v62.759q0 .159.158.158h17.91q.246 0 .246.247v8.903q0 .281.277.281l17.697-.005q.217 0 .222.217l.045 8.598-81.215.153-.163-8.997.015-18.118a.14.14 0 0 0-.044-.101.15.15 0 0 0-.104-.042l-54.08-.005-.004-144.751c0-.066.025-.128.07-.175a.24.24 0 0 1 .171-.072l26.707-.01a.167.167 0 0 0 .168-.167V26.81a.25.25 0 0 1 .251-.252zM81.925 54.497a.25.25 0 0 1 .251-.252h8.383a.25.25 0 0 0 .252-.251l.005-17.753a.25.25 0 0 0-.252-.252l-26.633.005a.25.25 0 0 0-.251.252v26.617a.25.25 0 0 0 .251.252l17.757.005a.25.25 0 0 0 .252-.252zm198.52-.257a.207.207 0 0 1 .207.207l-.005 8.46a.207.207 0 0 0 .207.208l17.841.005a.206.206 0 0 0 .207-.208l.005-26.706A.207.207 0 0 0 298.7 36h-26.697a.207.207 0 0 0-.207.207l-.02 17.832q0 .042.016.08a.21.21 0 0 0 .191.127zm-144.278 99.8a.16.16 0 0 0-.048-.115.16.16 0 0 0-.115-.048h-27.358a.16.16 0 0 0-.162.163v27.342q.001.067.047.115.049.046.115.047h27.358a.164.164 0 0 0 .163-.162zm117.201 27.509a.157.157 0 0 0 .158-.157v-27.357a.157.157 0 0 0-.158-.158h-27.367a.16.16 0 0 0-.112.046.16.16 0 0 0-.046.112v27.352a.157.157 0 0 0 .158.157zm-90.643-.364a.19.19 0 0 0-.192-.193h-17.86a.193.193 0 0 0-.193.193v17.856a.193.193 0 0 0 .193.192h17.86a.19.19 0 0 0 .192-.192zm54.804-.015a.177.177 0 0 0-.177-.178h-17.9a.177.177 0 0 0-.177.178v17.886c0 .047.018.092.052.125a.17.17 0 0 0 .125.052h17.9a.17.17 0 0 0 .125-.052.17.17 0 0 0 .052-.125z"/><path fill="#000" d="m27.13 253.469 54.08.005a.15.15 0 0 1 .105.042.14.14 0 0 1 .043.101l-.015 18.118-53.59.025a.63.63 0 0 1-.632-.627zM334.879 253.464l-.015 17.748a.545.545 0 0 1-.547.548h-52.901a.768.768 0 0 0-.774.769l-.005 7.168.01-26.055a.2.2 0 0 1 .013-.066.18.18 0 0 1 .094-.094.2.2 0 0 1 .066-.013zM162.721 280.579l8.614-.009q.266 0 .266.266v8.494a.12.12 0 0 0 .069.111l.002.001a.1.1 0 0 0 .053.012h17.998q.123 0 .123-.124v-8.524q0-.232.237-.232l9.226.005h81.309l-.005 17.758a.556.556 0 0 1-.553.553l-197.977-.005q-.726 0-.72-.725l.143-17.428z"/></svg>
